svg/shop_department_store-11.svg

<?xml version="1.0" encoding="UTF-8" standalone="no"?>
<svg
   xmlns:dc="http://purl.org/dc/elements/1.1/"
   xmlns:cc="http://creativecommons.org/ns#"
   xmlns:rdf="http://www.w3.org/1999/02/22-rdf-syntax-ns#"
   xmlns:svg="http://www.w3.org/2000/svg"
   xmlns="http://www.w3.org/2000/svg"
   xmlns:sodipodi="http://sodipodi.sourceforge.net/DTD/sodipodi-0.dtd"
   xmlns:inkscape="http://www.inkscape.org/namespaces/inkscape"
   width="11"
   height="11"
   viewBox="0 0 11 11"
   id="svg2"
   version="1.1"
   inkscape:version="0.91 r13725"
   sodipodi:docname="shop_department_store-11.svg">
  <sodipodi:namedview
     pagecolor="#ffffff"
     bordercolor="#666666"
     borderopacity="1"
     objecttolerance="10"
     gridtolerance="10"
     guidetolerance="10"
     inkscape:pageopacity="0"
     inkscape:pageshadow="2"
     inkscape:window-width="924"
     inkscape:window-height="480"
     id="namedview7"
     showgrid="false"
     fit-margin-top="0"
     fit-margin-left="0"
     fit-margin-right="0"
     fit-margin-bottom="0"
     inkscape:zoom="16.857143"
     inkscape:cx="5.5"
     inkscape:cy="5.3813559"
     inkscape:window-x="0"
     inkscape:window-y="27"
     inkscape:window-maximized="0"
     inkscape:current-layer="svg2" />
  <defs
     id="defs4" />
  <metadata
     id="metadata7">
    <rdf:RDF>
      <cc:Work
         rdf:about="">
        <dc:format>image/svg+xml</dc:format>
        <dc:type
           rdf:resource="http://purl.org/dc/dcmitype/StillImage" />
        <dc:title></dc:title>
      </cc:Work>
    </rdf:RDF>
  </metadata>
  <rect
     width="11"
     height="11"
     x="0"
     y="0"
     id="canvas"
     style="visibility:hidden;fill:none;stroke:none" />
  <path
     id="rect3477"
     d="M 5.5521764,0 C 5.0521949,0 4.5525482,0.1262029 4.1035157,0.3790458 3.2233852,0.8747529 2.6660232,1.7916127 2.6441127,2.7914342 l -1.4670758,0 -0.3913226,7.4013668 0,0.807199 9.4792127,0 -0.434291,-8.2085658 -1.3703961,0 C 8.4383184,1.7916127 7.8809744,0.8747529 7.0008371,0.3790458 6.5518053,0.1262029 6.0521586,0 5.5521764,0 Z m 0,1.2000558 c 0.2975193,0 0.5953232,0.074608 0.8609096,0.2240513 0.512618,0.28875 0.8257527,0.8045985 0.8470982,1.3673271 l -3.4160157,0 C 3.8654771,2.2287056 4.1786487,1.7128571 4.6912667,1.4241071 4.9568532,1.2745857 5.2546578,1.2000558 5.5521764,1.2000558 Z M 5.3173828,4.0866351 c 0.6089407,0 1.0567932,0.1193534 1.3427735,0.3560268 0.2859802,0.2366732 0.4281529,0.5198108 0.4281529,0.8501673 0,0.1849011 -0.043223,0.3623967 -0.1319754,0.5325056 C 6.8700466,5.9954438 6.7650084,6.1336664 6.6417411,6.2396763 6.5184737,6.3456863 6.298359,6.5027781 5.9803292,6.7123326 6.2441214,6.9761247 6.5184282,7.2221278 6.8044085,7.4489398 6.8808342,7.2960883 6.9465995,7.1341156 7.0008371,6.9640067 L 8.1763393,7.226423 C 8.1147055,7.4433735 8.0550289,7.617523 7.9983255,7.7481864 7.9416229,7.8788498 7.8624731,8.0325952 7.7589286,8.2101006 L 8.3236607,8.598354 c 0.069033,0.04438 0.1585446,0.09797 0.2670203,0.159598 L 7.780413,9.689453 C 7.6324921,9.610562 7.4787465,9.519839 7.3184989,9.416295 7.1607167,9.31275 7.0191479,9.223235 6.8934152,9.149274 6.6320884,9.321849 6.3705623,9.447894 6.1092355,9.526786 5.7468295,9.635261 5.3349038,9.689453 4.8738839,9.689453 4.1515373,9.689453 3.6135658,9.539054 3.2610213,9.238281 2.9084766,8.937509 2.7331195,8.573083 2.7331195,8.1441124 c 0,-0.308168 0.1028996,-0.5995326 0.3099888,-0.8731861 C 3.2501974,6.9948075 3.5896657,6.7625159 4.0605469,6.5726842 3.8633191,6.3335455 3.7278388,6.1262115 3.6538784,5.9511719 3.5799175,5.7736669 3.5433873,5.593429 3.5433873,5.4109933 3.5433873,5.0263992 3.6889061,4.710077 3.9822824,4.461077 4.2756587,4.2120769 4.7207689,4.0866351 5.3173828,4.0866351 Z m 0.062918,0.813337 c -0.1528515,0 -0.2767588,0.044757 -0.3729074,0.13351 -0.096148,0.088753 -0.1442522,0.1937907 -0.1442522,0.3145927 0,0.1528515 0.1354804,0.3751047 0.4066685,0.6660156 C 5.4645725,5.9080805 5.6149721,5.7936078 5.720982,5.6703404 5.8269921,5.5446077 5.8790458,5.4252542 5.8790458,5.3143136 5.8790458,5.1984423 5.8358228,5.1016311 5.7470703,5.0227399 5.6583178,4.9413835 5.5356182,4.8999721 5.3803014,4.8999721 Z M 4.7327007,7.3307757 C 4.5256117,7.4762312 4.3889237,7.6001385 4.319894,7.703683 4.2533296,7.8072276 4.2186105,7.916216 4.2186105,8.0320869 c 0,0.1799702 0.077942,0.3413394 0.233259,0.4818641 0.1553168,0.140525 0.3587008,0.21024 0.6077008,0.21024 0.2687228,0 0.5701258,-0.105038 0.905413,-0.3145928 C 5.6444882,8.1630639 5.2331663,7.8041223 4.7327009,7.3307757 Z"
     style="opacity:1;fill:#000000;fill-opacity:1;stroke:none;stroke-width:8;stroke-miterlimit:4;stroke-dasharray:none;stroke-dashoffset:0;stroke-opacity:1"
     inkscape:connector-curvature="0" />
</svg>

<svg xmlns="http://www.w3.org/2000/svg" width="11" height="11">
    <path visibility="hidden" fill="none" d="M0 0h11v11H0z"/>
    <path d="M5.552 0c-.5 0-1 .126-1.448.379a2.85 2.85 0 0 0-1.46 2.412H1.177l-.391 7.402V11h9.479L9.83 2.791H8.46A2.85 2.85 0 0 0 7 .38 2.95 2.95 0 0 0 5.552 0zm0 1.2c.298 0 .595.075.861.224.513.289.826.805.847 1.367H3.844a1.64 1.64 0 0 1 .847-1.367c.266-.15.564-.224.861-.224zm-.235 2.887c.61 0 1.057.119 1.343.356.286.236.428.52.428.85 0 .185-.043.362-.132.532-.086.17-.191.309-.314.415a7.295 7.295 0 0 1-.662.472c.264.264.538.51.824.737.077-.153.143-.315.197-.485l1.175.262a4.316 4.316 0 0 1-.178.522 4.47 4.47 0 0 1-.24.462l.566.388c.069.045.158.098.267.16l-.81.931a6.419 6.419 0 0 1-.463-.273c-.157-.103-.299-.193-.425-.267a3.003 3.003 0 0 1-.784.378 4.31 4.31 0 0 1-1.235.162c-.722 0-1.26-.15-1.613-.45-.353-.301-.528-.666-.528-1.095 0-.308.103-.6.31-.873.207-.276.547-.508 1.018-.698a2.675 2.675 0 0 1-.407-.622 1.393 1.393 0 0 1-.11-.54c0-.385.145-.7.438-.95.294-.249.739-.374 1.335-.374zm.063.813a.528.528 0 0 0-.373.133.415.415 0 0 0-.144.315c0 .153.136.375.407.666.195-.106.345-.22.451-.344.106-.125.158-.245.158-.356a.373.373 0 0 0-.132-.291.523.523 0 0 0-.367-.123zm-.647 2.43c-.207.146-.344.27-.413.374a.598.598 0 0 0-.101.328c0 .18.078.341.233.482.155.14.359.21.608.21.268 0 .57-.105.905-.314-.32-.247-.732-.606-1.232-1.08z"/>
</svg>
